X:68
T:Doon Reel 
B:CRE2.270 (RÃÂÃÂÃÂÃÂ­l an DÃÂÃÂÃÂÃÂºna)
F:file ID: cre.2/068doon
L:1/8
M:C
R:reel % A-B-A
Q:180
K:D
AG|F4 GEE2|FDDF ABAG|F4 GEE2|EFGE DFAG|
F4 GEE2|FDDF ABAG|F4 GEE2|AFGE D2||
(3Bcd|d4 dcA2|AG (3EFG ABcA|d3e dcAB|cdBc G4|
d2 (3dcd dcA2|AGFG ABcA|d2dc d2fd|(3dcd fd ecAG||

%%%

